X:11
T:Speed the Plough
T:Upton upon Severn Stick Dance
M:4/4
L:1/4
P:AABBABBABBABBABBC
N:Upton Stick Dance
K:G
"C" ce/2c/2 "G" Bd/2/B/2| "C" c A "G" G2|!
"G" G/2A/2B/2c/2 "C" d/2e/2d/2B/2| "C" d/2e/2d/2B/2 "C" d/2e/2d/2B/2| "C" ce/2c/2 "G" Bd/2/B/2| "C" c A "Am" A2|!
"G" G/2A/2B/2c/2 "C" d/2e/2d/2B/2| "C" d/2e/2d/2B/2 "C" d/2e/2d/2B/2| "C" ce/2c/2 "G" Bd/2/B/2| "Am" AA "G" G2|!
z4| "C" ce/2c/2 "G" Bd/2/B/2| "C" c A "G" G2|!
P:A
"G" G/2A/2B/2c/2 "C" d/2e/2d/2B/2| "C" d/2e/2d/2B/2 "C" d/2e/2d/2B/2| "C" ce/2c/2 "G" Bd/2/B/2| "C" c A "Am" A2|!
"G" G/2A/2B/2c/2 "C" d/2e/2d/2B/2| "C" d/2e/2d/2B/2 "C" d/2e/2d/2B/2| "C" ce/2c/2 "G" Bd/2/B/2| "Am" AA "G" G2|!
P:B
"G" g g "G" g2| "C" g f/2e/2 "G" d/2B/2G/2B/2| "C" c e/2c/2 "G" B d/2B/2| "C" c A "Am" A2|!
"G" g g "G" g2| "C" g f/2e/2 "G" d/2B/2G/2B/2| "C" c e/2c/2 "G" B d/2B/2| "Am" A A "G" G2|!
P:C
z4| "C" ce/2c/2 "G" Bd/2/B/2| "C" c A "G" G2|!
"G" G/2A/2B/2c/2 "C" d/2e/2d/2B/2| "C" d/2e/2d/2B/2 "C" d/2e/2d/2B/2| "C" ce/2c/2 "G" Bd/2/B/2| "C" c A "Am" A2|!
"G" G/2A/2B/2c/2 "C" d/2e/2d/2B/2| "C" d/2e/2d/2B/2 "C" d/2e/2d/2B/2| "C" ce/2c/2 "G" Bd/2/B/2| "Am" AA "G" G2|!

